X: 1381
T: Muhayyer Seyir
C: Erol Bingöl
O: Turkey
F: http://compmusic.upf.edu/node/140
N: muhayyer--seyir--sofyan--1--erol_bingol
N: makam= muhayyer
N: form= seyir
N: usul= sofyan = 4/4
M: 4/4
L: 1/16
K: C _2/4B ^3/4f  
Q: 1/4=60
%%MIDI tuningsystem comma53
g4 a4 a2b2 a2g2  | c'3b b2ba a8  | a2=b2 a2g2 g2f2 b2ag  | 
w:   |   |   | 
g3f gf^2/4fe e8  | g2a4g2 a2b2 c'2b2  | \
w:   |   | 
a2g2 =f2e2 d2ed c4  | 
w:   | 
d2e2 =f2a2 g2f2 e2d2  | c2dc cBBA A8  | |


